assets/Sports medal/Flat/sports_medal_flat.svg

<svg width="32" height="32" viewBox="0 0 32 32" fill="none" xmlns="http://www.w3.org/2000/svg">
<path d="M17.3279 11.51C17.1279 11.49 16.9279 11.47 16.7279 11.43C15.4879 11.21 14.3279 10.65 13.3879 9.79001C10.6479 7.68001 7.37788 5.02001 5.70788 2.01001H5.35788C3.90788 2.01001 2.99788 3.57002 3.70788 4.83002C5.02788 7.16002 6.88788 9.14001 9.12788 10.6C9.88788 11.19 10.8279 11.51 11.7879 11.51H17.3279Z" fill="#0074BA"/>
<path d="M16.7372 11.2945L16.1579 7.21999L13.5479 2.92999C13.2179 2.34999 12.5978 2 11.9278 2H9.75L15.9652 11.4755C15.8694 11.4886 15.7736 11.5004 15.6779 11.51V11.52H20.2079C21.1779 11.52 22.1079 11.2 22.8679 10.61C25.1179 9.15002 26.9779 7.17001 28.2879 4.84001C29.0079 3.57001 28.0879 2.01001 26.6479 2.01001H26.2979C23.5878 4.84001 20.3579 7.68001 17.6179 9.79001C17.2003 10.172 17.134 10.4949 17.0805 10.755C17.0334 10.9844 16.9963 11.165 16.7372 11.2945Z" fill="#F8312F"/>
<path d="M16.5618 10.0608L16.7424 11.3308C17.8066 11.0642 18.7963 10.5417 19.6179 9.79001C22.3579 7.68001 24.6279 5.02001 26.2979 2.01001H21.7279L16.5618 10.0608Z" fill="#D3D3D3"/>
<path d="M16.374 11.51H16.3277C16.3277 11.51 16.3278 11.51 16.3277 11.51L16.5279 11.75L16.374 11.51Z" fill="#D3D3D3"/>
<path d="M15.9678 11.4788C15.8712 11.4907 15.7745 11.5003 15.6779 11.51L15.4779 11.75L15.6878 11.4228C14.4629 11.1979 13.3177 10.6407 12.3879 9.79001C9.64785 7.68001 7.17 5.01 5.5 2H9.88785L15.9678 11.4788Z" fill="#D3D3D3"/>
<path d="M22.1078 2.01001H20.0678C19.3978 2.01001 18.7878 2.36002 18.4478 2.94002L13.2278 11.52H16.0078L22.1078 2.01001Z" fill="#00A6ED"/>
<path d="M16.6079 15.67L17.4379 17.39C17.5379 17.59 17.7279 17.74 17.9479 17.77L19.7979 18.05C20.3479 18.13 20.5779 18.83 20.1679 19.23L18.8879 20.51C18.6979 20.7 18.6379 20.98 18.7179 21.24L19.3079 22.95C19.5079 23.52 18.9479 24.06 18.3979 23.82L16.2579 22.86C16.0879 22.78 15.8879 22.78 15.7179 22.86L13.5779 23.82C13.0379 24.06 12.4679 23.52 12.6679 22.95L13.2579 21.24C13.3479 20.98 13.2779 20.7 13.0879 20.51L11.8079 19.23C11.4079 18.83 11.6279 18.13 12.1779 18.05L14.0279 17.77C14.2479 17.74 14.4379 17.6 14.5379 17.39L15.3679 15.67C15.6379 15.15 16.3579 15.15 16.6079 15.67Z" fill="#D3883E"/>
<path d="M15.9901 29.9999C21.535 29.9999 26.0301 25.3929 26.0301 19.7099C26.0301 14.0269 21.535 9.41992 15.9901 9.41992C10.4451 9.41992 5.95007 14.0269 5.95007 19.7099C5.95007 25.3929 10.4451 29.9999 15.9901 29.9999Z" fill="#FFB02E"/>
<path d="M16.0001 28.7599C13.6401 28.7599 11.4201 27.8199 9.76011 26.1099C8.09011 24.3999 7.1701 22.1299 7.1701 19.7099C7.1701 17.2899 8.09011 15.0199 9.76011 13.3099C13.2001 9.77985 18.8001 9.77985 22.2501 13.3099C25.6901 16.8399 25.6901 22.5799 22.2501 26.1099C20.5701 27.8199 18.3501 28.7599 16.0001 28.7599ZM15.9901 11.8899C14.0401 11.8899 12.0801 12.6499 10.6001 14.1799C9.16011 15.6599 8.3701 17.6199 8.3701 19.7099C8.3701 21.7999 9.16011 23.7599 10.6001 25.2399C12.0401 26.7199 13.9601 27.5299 15.9901 27.5299C18.0301 27.5299 19.9401 26.7199 21.3801 25.2399C24.3501 22.1899 24.3501 17.2299 21.3801 14.1799C19.9001 12.6499 17.9501 11.8899 15.9901 11.8899Z" fill="#FCD53F"/>
<path d="M16.6001 15.66L17.4301 17.38C17.5301 17.58 17.7201 17.73 17.9401 17.76L19.7901 18.04C20.3401 18.12 20.5701 18.82 20.1601 19.22L18.8801 20.5C18.6901 20.69 18.6301 20.97 18.7101 21.23L19.3001 22.94C19.5001 23.51 18.9401 24.05 18.3901 23.81L16.2501 22.85C16.0801 22.77 15.8801 22.77 15.7101 22.85L13.5701 23.81C13.0301 24.05 12.4601 23.51 12.6601 22.94L13.2501 21.23C13.3401 20.97 13.2701 20.69 13.0801 20.5L11.8001 19.22C11.4001 18.82 11.6201 18.12 12.1701 18.04L14.0201 17.76C14.2401 17.73 14.4301 17.59 14.5301 17.38L15.3601 15.66C15.6301 15.14 16.3501 15.14 16.6001 15.66Z" fill="#6D4534"/>
</svg>

<svg xmlns="http://www.w3.org/2000/svg" width="32" height="32" fill="none"><path fill="#0074BA" d="M17.328 11.51c-.2-.02-.4-.04-.6-.08-1.24-.22-2.4-.78-3.34-1.64-2.74-2.11-6.01-4.77-7.68-7.78h-.35c-1.45 0-2.36 1.56-1.65 2.82 1.32 2.33 3.18 4.31 5.42 5.77.76.59 1.7.91 2.66.91h5.54Z"/><path fill="#F8312F" d="m16.737 11.294-.58-4.074-2.61-4.29c-.33-.58-.95-.93-1.62-.93H9.75l6.215 9.476a8.06 8.06 0 0 1-.287.034v.01h4.53c.97 0 1.9-.32 2.66-.91a16.55 16.55 0 0 0 5.42-5.77c.72-1.27-.2-2.83-1.64-2.83h-.35c-2.71 2.83-5.94 5.67-8.68 7.78-.418.382-.484.705-.537.965-.048.23-.085.41-.344.54Z"/><path fill="#D3D3D3" d="m16.562 10.06.18 1.27a6.645 6.645 0 0 0 2.876-1.54c2.74-2.11 5.01-4.77 6.68-7.78h-4.57l-5.166 8.05ZM16.374 11.51h-.046l.2.24-.154-.24ZM15.968 11.479c-.097.012-.194.021-.29.031l-.2.24.21-.327a6.662 6.662 0 0 1-3.3-1.633C9.648 7.68 7.17 5.01 5.5 2h4.388l6.08 9.479Z"/><path fill="#00A6ED" d="M22.108 2.01h-2.04c-.67 0-1.28.35-1.62.93l-5.22 8.58h2.78l6.1-9.51Z"/><path fill="#D3883E" d="m16.608 15.67.83 1.72c.1.2.29.35.51.38l1.85.28c.55.08.78.78.37 1.18l-1.28 1.28c-.19.19-.25.47-.17.73l.59 1.71c.2.57-.36 1.11-.91.87l-2.14-.96a.638.638 0 0 0-.54 0l-2.14.96c-.54.24-1.11-.3-.91-.87l.59-1.71c.09-.26.02-.54-.17-.73l-1.28-1.28c-.4-.4-.18-1.1.37-1.18l1.85-.28c.22-.03.41-.17.51-.38l.83-1.72c.27-.52.99-.52 1.24 0Z"/><path fill="#FFB02E" d="M15.99 30c5.545 0 10.04-4.607 10.04-10.29 0-5.683-4.495-10.29-10.04-10.29-5.545 0-10.04 4.607-10.04 10.29C5.95 25.393 10.445 30 15.99 30Z"/><path fill="#FCD53F" d="M16 28.76c-2.36 0-4.58-.94-6.24-2.65a9.098 9.098 0 0 1-2.59-6.4c0-2.42.92-4.69 2.59-6.4a8.69 8.69 0 0 1 12.49 0c3.44 3.53 3.44 9.27 0 12.8-1.68 1.71-3.9 2.65-6.25 2.65Zm-.01-16.87c-1.95 0-3.91.76-5.39 2.29a7.872 7.872 0 0 0-2.23 5.53c0 2.09.79 4.05 2.23 5.53a7.476 7.476 0 0 0 5.39 2.29c2.04 0 3.95-.81 5.39-2.29 2.97-3.05 2.97-8.01 0-11.06a7.46 7.46 0 0 0-5.39-2.29Z"/><path fill="#6D4534" d="m16.6 15.66.83 1.72c.1.2.29.35.51.38l1.85.28c.55.08.78.78.37 1.18l-1.28 1.28c-.19.19-.25.47-.17.73l.59 1.71c.2.57-.36 1.11-.91.87l-2.14-.96a.637.637 0 0 0-.54 0l-2.14.96c-.54.24-1.11-.3-.91-.87l.59-1.71c.09-.26.02-.54-.17-.73l-1.28-1.28c-.4-.4-.18-1.1.37-1.18l1.85-.28c.22-.03.41-.17.51-.38l.83-1.72c.27-.52.99-.52 1.24 0Z"/></svg>
